X: 38639
T: Stormness Head
R: jig
M: 6/8
K: Aminor
|:eAA eAA|e3 edc|BGG dGG|ded dcB|
eAA eAA|e3 edc|B3 ecA|dBG A3:|
|:A3 ABc|A2G G3|ddd dec|dec BAG|
A3 ABc|A2G G3|dec BAG|A3 A3:|

